!!! OTL: Berkowitz181
!!! Chapter: 1
!!! Section: II
!!! Page: 43
!!! Mode: 
!!! Encoder: DJB
**kern
*staff1
*I"Piano
=1-
*clefC4
*k[f#c#]
*D:
*M3/4
4D/
4E/
4F#/
=2
2A\
4G/
=3
2.E/
=4
4E/
4F#/
4G/
=5
2B\
4A\
=6
2G/
4A\
=7
4B\
4d\
4B\
=8
4A\
4d\
4A\
=9
4.G/
8F#/
8E/L
8D/J
=10
2E/
4G/
=11
2F#/
4A\
=12
!!linebreak:original
4G/
4F#/
4E/
=13
2.D/
==
*-
